static/assets/template/assets/img/icons/essential/detailed/Package_2.svg

<svg height="140" viewBox="0 0 147 140" width="147" xmlns="http://www.w3.org/2000/svg"><g fill="none" fill-rule="evenodd" transform="translate(1 1)"><path d="m.5 20.6 73.4 13.9.4 102.9-73.7-19.6c-.1-.1-.1-96.3-.1-97.2z" fill-rule="nonzero"/><path d="m144.4 16.6-70.5 17.9.4 102.9 70.1-24.5c0-.1 0-96.3 0-96.3z" fill-rule="nonzero"/><path d="m4.6 25.3 71.3 13.3.4 98.7-71.5-18.8s.4-93.2-.2-93.2z" fill-rule="nonzero"/><path d="m144.4 21.5-69.8 17 1.7 98.9 68.1-23.5c0-.1-.6-92.4 0-92.4z" fill-rule="nonzero"/><g stroke-linecap="round" stroke-linejoin="round" stroke-width="3"><path d="m74.2 126.6v10.8l-73.7-19.6v-97.1l73.4 13.9"/><path d="m74 80.9.2 35.2"/><path d="m73.9 34.5.1 20.1"/><path d="m144.4 16.6-70.4 17.9"/><path d="m74.2 129.4v8l70.1-24.5v-96.2000778"/></g><path d="m8.3 22.1 65-17.6 63.1 14.1-62.7 15.9z" fill-rule="nonzero"/><path d="m97.3 6.1 47.1 10.5-70.5 17.9-73.4-13.9 72.9-19.8 16.6 3.7z" stroke-linecap="round" stroke-linejoin="round" stroke-width="3"/><path d="m39.6 71.2-26.7-6.1v-18.5l26.7 6.1z" fill-rule="nonzero"/><path d="m39.6 71.2-24-5.2v-15.5l23.4 5.4z" fill-rule="nonzero"/><path d="m39.6 71.2-26.7-6.1v-18.5l26.7 6.1z" stroke-linecap="round" stroke-linejoin="round" stroke-width="3"/><path d="m36.9 27.5c8.1-2.4 59.7-17.8 67.1-20" stroke-linecap="round" stroke-linejoin="round" stroke-width="3"/></g></svg>

<?xml version="1.0" encoding="UTF-8"?>
<svg width="147px" height="140px" viewBox="0 0 147 140" version="1.1" xmlns="http://www.w3.org/2000/svg" xmlns:xlink="http://www.w3.org/1999/xlink">
    <!-- Generator: Sketch 51.2 (57519) - http://www.bohemiancoding.com/sketch -->
    <title>Package_2</title>
    <desc>Created with Sketch.</desc>
    <defs></defs>
    <g id="Page-1" stroke="none" stroke-width="1" fill="none" fill-rule="evenodd">
        <g id="Package_2" transform="translate(1.000000, 1.000000)">
            <path d="M0.5,20.6 L73.9,34.5 L74.3,137.4 L0.6,117.8 C0.5,117.7 0.5,21.5 0.5,20.6 Z" id="Shape" class="fill-neutral" fill-rule="nonzero"></path>
            <path d="M144.4,16.6 L73.9,34.5 L74.3,137.4 L144.4,112.9 C144.4,112.8 144.4,16.6 144.4,16.6 Z" id="Shape" class="fill-neutral" fill-rule="nonzero"></path>
            <path d="M4.6,25.3 L75.9,38.6 L76.3,137.3 L4.8,118.5 C4.8,118.5 5.2,25.3 4.6,25.3 Z" id="Shape" class="fill-primary-100" fill-rule="nonzero"></path>
            <path d="M144.4,21.5 L74.6,38.5 L76.3,137.4 L144.4,113.9 C144.4,113.8 143.8,21.5 144.4,21.5 Z" id="Shape" class="fill-primary-100" fill-rule="nonzero"></path>
            <path d="M74.2,126.6 L74.2,137.4 L0.5,117.8 C0.5,117.8 0.5,20.7 0.5,20.7 L73.9,34.6" id="Shape" class="stroke-primary" stroke-width="3" stroke-linecap="round" stroke-linejoin="round"></path>
            <path d="M74,80.9 L74.2,116.1" id="Shape" class="stroke-primary" stroke-width="3" stroke-linecap="round" stroke-linejoin="round"></path>
            <path d="M73.9,34.5 L74,54.6" id="Shape" class="stroke-primary" stroke-width="3" stroke-linecap="round" stroke-linejoin="round"></path>
            <path d="M144.4,16.6 L74,34.5" id="Shape" class="stroke-primary" stroke-width="3" stroke-linecap="round" stroke-linejoin="round"></path>
            <path d="M74.2,129.4 L74.2,137.4 L144.3,112.9 C144.3,112.9 144.3,16.6 144.3,16.6999222" id="Shape" class="stroke-primary" stroke-width="3" stroke-linecap="round" stroke-linejoin="round"></path>
            <polygon id="Shape" class="fill-primary-100" fill-rule="nonzero" points="8.3 22.1 73.3 4.5 136.4 18.6 73.7 34.5"></polygon>
            <polygon id="Shape" class="stroke-primary" stroke-width="3" stroke-linecap="round" stroke-linejoin="round" points="97.3 6.1 144.4 16.6 73.9 34.5 0.5 20.6 73.4 0.8 90 4.5"></polygon>
            <polygon id="Shape" class="fill-neutral" fill-rule="nonzero" points="39.6 71.2 12.9 65.1 12.9 46.6 39.6 52.7"></polygon>
            <polygon id="Shape" class="fill-primary-300" fill-rule="nonzero" points="39.6 71.2 15.6 66 15.6 50.5 39 55.9"></polygon>
            <polygon id="Shape" class="stroke-primary" stroke-width="3" stroke-linecap="round" stroke-linejoin="round" points="39.6 71.2 12.9 65.1 12.9 46.6 39.6 52.7"></polygon>
            <path d="M36.9,27.5 C45,25.1 96.6,9.7 104,7.5" id="Shape" class="stroke-primary" stroke-width="3" stroke-linecap="round" stroke-linejoin="round"></path>
        </g>
    </g>
</svg>
